X: 120
T:Missa Mater patris / Agnus Dei
N: Derived from Jos1001e-Missa_Mater_patris-Agnus.krn
C: Josquin des Prez
%%abc-version 2.0
%%abcx-abcm2ps-target-version 5.9.1 (29 Sep 2008)
%%abc-creator hum2abc beta
%%abcx-conversion-date 2019/02/12 16:15:43
%%abc-edited-by Jesse Rodin
%%abc-edited-by Will Watson 17/08/2011
%%abcx-initial-encoding-date 2011/08/17/
%%humdrum-veritas 8799645
%%humdrum-veritas-data 1360019967
%%linebreak <none>
%%barnumbers 0
L: 1/4
M: 2/1
Q: 1/2=120
V: 1 clef=treble-8
V: 2 clef=treble-8
V: 3 clef=treble-8
V: 4 clef=bass
V: 5 clef=bass
K: F
[V:1] z8 | 
[V:2] z8 | 
[V:3] z8 | 
[V:4] G,8 | 
[V:5] z8 | 
[V:1] z8 | 
[V:2] z8 | 
[V:3] z8 | 
[V:4] G,4F,4 | 
[V:5] z8 | 
[V:1] z8 | 
[V:2] G8 | 
[V:3] z8 | 
[V:4] B,6G,2 | 
[V:5] z8 | 
[V:1] z8 | 
[V:2] G4F4 | 
[V:3] z8 | 
[V:4] B,4C4 | 
[V:5] z8 | 
[V:1] z8 | 
[V:2] B6G2 | 
[V:3] G8 | 
[V:4] D4G,2D2- | 
[V:5] z8 | 
[V:1] z8 | 
[V:2] B4c4 | 
[V:3] G4F4 | 
[V:4] D2CB,A,4 | 
[V:5] z8 | 
[V:1] z8 | 
[V:2] d8 | 
[V:3] B6G2 | 
[V:4] G,3F,G,A,B,2- | 
[V:5] z8 | 
[V:1] z4g4 | 
[V:2] z4G4 | 
[V:3] B4c4 | 
[V:4] B,A,G,F,E,4 | 
[V:5] z8 | 
[V:1] f4b4 | 
[V:2] A4B4 | 
[V:3] d8 | 
[V:4] D,4G,4 | 
[V:5] z8 | 
[V:1] a4g4 | 
[V:2] c2A2B2c2 | 
[V:3] z4G4 | 
[V:4] F,4E,4 | 
[V:5] z8 | 
[V:1] f4b4 | 
[V:2] d8 | 
[V:3] A4B4 | 
[V:4] D,4G,4 | 
[V:5] z8 | 
[V:1] a2f2g4 | 
[V:2] z8 | 
[V:3] c2A2B2c2 | 
[V:4] F,4E,4 | 
[V:5] z8 | 
[V:1] f8 | 
[V:2] z4D4 | 
[V:3] d8 | 
[V:4] D,8 | 
[V:5] z8 | 
[V:1] z4f4 | 
[V:2] E4F4 | 
[V:3] z8 | 
[V:4] z4D,4 | 
[V:5] z8 | 
[V:1] e4d4 | 
[V:2] G2E2F2G2 | 
[V:3] z4D4 | 
[V:4] C,4B,,4 | 
[V:5] z8 | 
[V:1] c4f4 | 
[V:2] A8 | 
[V:3] E4F4 | 
[V:4] A,,4D,4 | 
[V:5] z8 | 
[V:1] e4d4 | 
[V:2] z8 | 
[V:3] G2E2F2G2 | 
[V:4] C,4B,,4 | 
[V:5] z8 | 
[V:1] c4f4 | 
[V:2] z4F4 | 
[V:3] A8 | 
[V:4] A,,4D,4 | 
[V:5] z8 | 
[V:1] e2d4c2 | 
[V:2] G4A4 | 
[V:3] z8 | 
[V:4] C,2B,,2A,,4 | 
[V:5] z8 | 
[V:1] d4f4 | 
[V:2] B2G2A2B2 | 
[V:3] z4F4 | 
[V:4] G,,4D,4 | 
[V:5] z8 | 
[V:1] e4a4 | 
[V:2] c8 | 
[V:3] G4A4 | 
[V:4] C,4F,4 | 
[V:5] z8 | 
[V:1] g4f4 | 
[V:2] z8 | 
[V:3] B2G2A2B2 | 
[V:4] G,2E,2D,4 | 
[V:5] z8 | 
[V:1] e4a4 | 
[V:2] z4A4 | 
[V:3] c8 | 
[V:4] C,4F,4 | 
[V:5] z8 | 
[V:1] g4g4 | 
[V:2] B4c4 | 
[V:3] z8 | 
[V:4] G,4E,4 | 
[V:5] z8 | 
[V:1] f8 | 
[V:2] d8 | 
[V:3] z4A4 | 
[V:4] D,4F,4 | 
[V:5] z8 | 
[V:1] g8 | 
[V:2] G8 | 
[V:3] B4c4 | 
[V:4] _E,8 | 
[V:5] z8 | 
[V:1] f4f4 | 
[V:2] A4d4 | 
[V:3] d8 | 
[V:4] D,6B,,2 | 
[V:5] z8 | 
[V:1] _e2d4c2 | 
[V:2] c2B4AG | 
[V:3] G8 | 
[V:4] C,2D,2_E,4 | 
[V:5] z8 | 
[V:1] d8 ||  
[V:2] F8 ||  
[V:3] A8 ||  
[V:4] D,8 ||  
[V:5] z8 ||  
[V:1]  [K:F] [K:clef=treble-8][M:2/1]z8 | 
[V:2]  [K:F] [K:clef=treble-8][M:2/1]d6c2 | 
[V:3]  [K:F] [K:clef=treble-8][M:2/1]z8 | 
[V:4]  [K:F] [K:clef=bass][M:2/1]z8 | 
[V:5]  [K:F] [K:clef=bass][M:2/1]z8 | 
[V:1] z8 | 
[V:2] d2B2c2d2- | 
[V:3] z8 | 
[V:4] z8 | 
[V:5] z8 | 
[V:1] d6c2 | 
[V:2] dcBAG2A2 | 
[V:3] z8 | 
[V:4] z8 | 
[V:5] z8 | 
[V:1] d2B2c2d2- | 
[V:2] D4z4 | 
[V:3] z8 | 
[V:4] z8 | 
[V:5] z8 | 
[V:1] dcBAG2A2 | 
[V:2] d6c2 | 
[V:3] z8 | 
[V:4] z8 | 
[V:5] z8 | 
[V:1] D4z4 | 
[V:2] d2B2c2d2 | 
[V:3] z8 | 
[V:4] z8 | 
[V:5] z8 | 
[V:1] d6c2 | 
[V:2] B2f3de2 | 
[V:3] z8 | 
[V:4] z8 | 
[V:5] z8 | 
[V:1] d2B2c2d2 | 
[V:2] f4z2F2 | 
[V:3] z8 | 
[V:4] z8 | 
[V:5] z8 | 
[V:1] B2f3de2 | 
[V:2] G2F2G4 | 
[V:3] z8 | 
[V:4] z8 | 
[V:5] z8 | 
[V:1] f4z2F2 | 
[V:2] F4f4 | 
[V:3] z8 | 
[V:4] z8 | 
[V:5] z8 | 
[V:1] G2F2G4 | 
[V:2] e2d4cB | 
[V:3] z8 | 
[V:4] z8 | 
[V:5] z8 | 
[V:1] F4f4 | 
[V:2] A4z2D2 | 
[V:3] z8 | 
[V:4] z8 | 
[V:5] z8 | 
[V:1] e2d4cB | 
[V:2] E2F2G4 | 
[V:3] z8 | 
[V:4] z8 | 
[V:5] z8 | 
[V:1] A4z2D2 | 
[V:2] z2D2E2F2 | 
[V:3] z8 | 
[V:4] z8 | 
[V:5] z8 | 
[V:1] E2F2G4 | 
[V:2] G2A2B2c2 | 
[V:3] z8 | 
[V:4] z8 | 
[V:5] z8 | 
[V:1] z2D2E2F2 | 
[V:2] d4G2d2- | 
[V:3] z8 | 
[V:4] z8 | 
[V:5] z8 | 
[V:1] G2A2B2c2 | 
[V:2] dBc2d2e2 | 
[V:3] z8 | 
[V:4] z8 | 
[V:5] z8 | 
[V:1] d4G2d2- | 
[V:2] f4B4- | 
[V:3] z8 | 
[V:4] z8 | 
[V:5] z8 | 
[V:1] dBc2d2e2 | 
[V:2] B2A2G4 | 
[V:3] z8 | 
[V:4] z8 | 
[V:5] z8 | 
[V:1] f4B4- | 
[V:2] F4G4 | 
[V:3] z8 | 
[V:4] z8 | 
[V:5] z8 | 
[V:1] B2A2G4 | 
[V:2] D4d4- | 
[V:3] z8 | 
[V:4] z8 | 
[V:5] z8 | 
[V:1] F4G4 | 
[V:2] d2c2B2AG | 
[V:3] z8 | 
[V:4] z8 | 
[V:5] z8 | 
[V:1] D4d4- | 
[V:2] F2A2G2B2- | 
[V:3] z8 | 
[V:4] z8 | 
[V:5] z8 | 
[V:1] d2c2B2AG | 
[V:2] BAA4G2 | 
[V:3] z8 | 
[V:4] z8 | 
[V:5] z8 | 
[V:1] F2A2G2B2- | 
[V:2] A2D2d4 | 
[V:3] z8 | 
[V:4] z8 | 
[V:5] z8 | 
[V:1] BAA4G2 | 
[V:2] c2A2B4 | 
[V:3] z8 | 
[V:4] z8 | 
[V:5] z8 | 
[V:1] A2D2d4 | 
[V:2] A2f4ed | 
[V:3] z8 | 
[V:4] z8 | 
[V:5] z8 | 
[V:1] c2A2B4 | 
[V:2] e2f4ed | 
[V:3] z8 | 
[V:4] z8 | 
[V:5] z8 | 
[V:1] A2f4ed | 
[V:2] c2B2d4 | 
[V:3] z8 | 
[V:4] z8 | 
[V:5] z8 | 
[V:1] e2f4ed | 
[V:2] c2B2f4 | 
[V:3] z8 | 
[V:4] z8 | 
[V:5] z8 | 
[V:1] c2B2d4 | 
[V:2] e2d4cB | 
[V:3] z8 | 
[V:4] z8 | 
[V:5] z8 | 
[V:1] c2B2f4 | 
[V:2] A2f3ed2 | 
[V:3] z8 | 
[V:4] z8 | 
[V:5] z8 | 
[V:1] e2d4cB | 
[V:2] c2B4AG | 
[V:3] z8 | 
[V:4] z8 | 
[V:5] z8 | 
[V:1] A8 ||  
[V:2] F8 ||  
[V:3] z8 ||  
[V:4] z8 ||  
[V:5] z8 ||  
[V:1]  [K:F] [K:clef=treble-8][M:2/1]d4G2d2- | 
[V:2]  [K:F] [K:clef=treble-8][M:2/1]z8 | 
[V:3]  [K:F] [K:clef=treble-8][M:2/1]z8 | 
[V:4]  [K:F] [K:clef=bass][M:2/1]G,8 | 
[V:5]  [K:F] [K:clef=bass][M:2/1]G,8 | 
[V:1] d2cBA4 | 
[V:2] z8 | 
[V:3] z8 | 
[V:4] G,4F,4 | 
[V:5] B,4C4 | 
[V:1] G2d2G2d2- | 
[V:2] G8 | 
[V:3] z8 | 
[V:4] B,6G,2 | 
[V:5] D2G,2D4- | 
[V:1] d2cBA4 | 
[V:2] G4F4 | 
[V:3] z8 | 
[V:4] B,4C4 | 
[V:5] D2E2F4 | 
[V:1] G4d4- | 
[V:2] B6G2 | 
[V:3] G8 | 
[V:4] D4z2D2- | 
[V:5] G4G,2B,2- | 
[V:1] d2e2f4 | 
[V:2] B4c4 | 
[V:3] G4F4 | 
[V:4] D2CB,A,4 | 
[V:5] B,2A,G,A,2C2 | 
[V:1] g4G4- | 
[V:2] d8 | 
[V:3] B6G2 | 
[V:4] G,4z2B,2- | 
[V:5] B,2G,A,B,CD2 | 
[V:1] G4g4 | 
[V:2] z4G4 | 
[V:3] B4c4 | 
[V:4] B,A,G,F,E,4 | 
[V:5] G,4z2C,2 | 
[V:1] f6ed | 
[V:2] A6B2 | 
[V:3] d8 | 
[V:4] D,3E,F,2G,2 | 
[V:5] F,3E,D,2G,,2 | 
[V:1] f2d2g4 | 
[V:2] A2B4AG | 
[V:3] z4d4 | 
[V:4] F,2G,4F,E, | 
[V:5] D,2G,,6 | 
[V:1] a2f4ed | 
[V:2] F3GA2B2- | 
[V:3] d4d4 | 
[V:4] D,3E,F,D,G,2- | 
[V:5] D,6G,,2 | 
[V:1] g4d2e2 | 
[V:2] B2AGB2A2- | 
[V:3] d6c2- | 
[V:4] G,2F,E,G,2C,2 | 
[V:5] G,,4z2C,2- | 
[V:1] c4d4 | 
[V:2] AGg4f2 | 
[V:3] cBAGA4 | 
[V:4] E,4D,4 | 
[V:5] C,D,E,2F,2D,2 | 
[V:1] B4A4 | 
[V:2] g2d4c2 | 
[V:3] G4z4 | 
[V:4] z4F,4 | 
[V:5] G,,4D,4 | 
[V:1] G2B2A4 | 
[V:2] B2AGF4 | 
[V:3] z4c4 | 
[V:4] G,4A,4 | 
[V:5] G,,4z4 | 
[V:1] G4z2G2 | 
[V:2] z8 | 
[V:3] d4e4 | 
[V:4] B,4G,4 | 
[V:5] G,,4C,4 | 
[V:1] A4z2F2 | 
[V:2] c4d4 | 
[V:3] f4FGAB | 
[V:4] F,3E,D,4 | 
[V:5] F,,2F,3D,F,2 | 
[V:1] G4F4 | 
[V:2] e4f4 | 
[V:3] c4A2B2- | 
[V:4] C,4D,4 | 
[V:5] (3E,2C,2E,2(3D,3C,D,2 | 
[V:1] z2B2A2G2 | 
[V:2] z2d4e2- | 
[V:3] B2AGA2B2- | 
[V:4] G,4F,2G,2 | 
[V:5] G,,4D,2G,,2 | 
[V:1] B2F2G4 | 
[V:2] e2d4c2 | 
[V:3] B2A4G2 | 
[V:4] D,2F,2E,4 | 
[V:5] D,4G,4 | 
[V:1] A4z4 | 
[V:2] f4z4 | 
[V:3] d4z4 | 
[V:4] D,4z4 | 
[V:5] F,8 | 
[V:1] b6b2- | 
[V:2] g6f2- | 
[V:3] d6d2- | 
[V:4] G,6B,2- | 
[V:5] B,6B,,2 | 
[V:1] b2b4b2 | 
[V:2] f2g4f2 | 
[V:3] d2d4d2 | 
[V:4] B,2G,4B,2 | 
[V:5] B,6B,,2- | 
[V:1] b4a3g | 
[V:2] f2f2f4 | 
[V:3] d4c4 | 
[V:4] B,2B,2F,4 | 
[V:5] B,,2B,2C2A,2 | 
[V:1] fed4G2 | 
[V:2] f6g2- | 
[V:3] z4B4 | 
[V:4] z8 | 
[V:5] B,3CD4 | 
[V:1] E2F2D4 | 
[V:2] g2a3gfe | 
[V:3] c4d3c | 
[V:4] z8 | 
[V:5] E2C2F4 | 
[V:1] G4E2D2 | 
[V:2] d4e2f2 | 
[V:3] BAG4A2 | 
[V:4] z8 | 
[V:5] z2B,2C2D2- | 
[V:1] G3FEDC2- | 
[V:2] d4g3f | 
[V:3] B2G4c2- | 
[V:4] z8 | 
[V:5] DCB,A,G,4 | 
[V:1] C2F4D2 | 
[V:2] edc4d2 | 
[V:3] cBAGF4 | 
[V:4] z8 | 
[V:5] C3B,A,G,F,2 | 
[V:1] C2F4D2 | 
[V:2] e2c4d2 | 
[V:3] G2A2F4 | 
[V:4] z8 | 
[V:5] C4A,2B,2 | 
[V:1] C2F2D2G2- | 
[V:2] e2f4d2- | 
[V:3] G2A2B4 | 
[V:4] z8 | 
[V:5] C4D4 | 
[V:1] G2E2D4 | 
[V:2] d2g4^f2 | 
[V:3] G4A4 | 
[V:4] z8 | 
[V:5] B,2C2D4- | 
[V:1] z2B4A2 | 
[V:2] g4z4 | 
[V:3] G4z4 | 
[V:4] z2G,4F,2 | 
[V:5] D4D,4 | 
[V:1] B4G4 | 
[V:2] z4z2g2- | 
[V:3] z2d4c2 | 
[V:4] G,4E,2E,2 | 
[V:5] G,2G,,2G,2C,2 | 
[V:1] A4G2d2 | 
[V:2] g2f2g4 | 
[V:3] d4B2B2 | 
[V:4] D,2D,2G,4 | 
[V:5] (3:2:6F,3G,A,2B,2G,2B,2 | 
[V:1] c2A2B2G2 | 
[V:2] e2e2d2d2 | 
[V:3] A2A2d4 | 
[V:4] z2C2B,2B,2 | 
[V:5] (3C2A,2C2(3G,2B,2G,2 | 
[V:1] B3cd4 | 
[V:2] g2g2f2f2 | 
[V:3] z8 | 
[V:4] G,2G,2B,2B,2 | 
[V:5] D4z2D2 | 
[V:1] z2G2A4 | 
[V:2] d2g4f2- | 
[V:3] z8 | 
[V:4] B,4F,4 | 
[V:5] B,2D2(3C2A,2C2 | 
[V:1] B4c2A2 | 
[V:2] f2e2f4 | 
[V:3] z8 | 
[V:4] G,4F,4 | 
[V:5] (3B,2G,2B,2(3A,2F,2A,2 | 
[V:1] B3GB2A2 | 
[V:2] z8 | 
[V:3] d8 | 
[V:4] z2G,4F,2 | 
[V:5] G,4G,,2D,2 | 
[V:1] G3ABGA2 | 
[V:2] z8 | 
[V:3] c2B2d4 | 
[V:4] E,2G,4F,2 | 
[V:5] z2G,,4D,2 | 
[V:1] G3ABGA2 | 
[V:2] z8 | 
[V:3] c2B2d4 | 
[V:4] E,2G,4F,2 | 
[V:5] z2G,,4D,2 | 
[V:1] G3ABGA2 | 
[V:2] z8 | 
[V:3] c2B2d4 | 
[V:4] E,2G,4F,2 | 
[V:5] z2G,,4D,2 | 
[V:1] G2d6 | 
[V:2] z8 | 
[V:3] c2B2A3B | 
[V:4] E,2D,3E,F,G, | 
[V:5] z2G,,2D,4 | 
[V:1] e2f2d2A2 | 
[V:2] z2f3ga2- | 
[V:3] c2d4c2 | 
[V:4] E,2D,3E,F,2 | 
[V:5] C,2B,,2F,4 | 
[V:1] B2c2d4 | 
[V:2] a2g4^f2 | 
[V:3] B2G2A4 | 
[V:4] G,2E,2D,4 | 
[V:5] z8 | 
[V:1] B6AG | 
[V:2] g8 | 
[V:3] G4z4 | 
[V:4] G,4z4 | 
[V:5] G,,8 | 
[V:1] G4g4 | 
[V:2] d8 | 
[V:3] B8 | 
[V:4] G,8 | 
[V:5] G,,4G,,4 | 
[V:1] g4g4 | 
[V:2] c4c4 | 
[V:3] G4G4 | 
[V:4] E,4E,4 | 
[V:5] C,4C,4 | 
[V:1] f4f4 | 
[V:2] d4d4 | 
[V:3] A4B4 | 
[V:4] D,4D,4 | 
[V:5] F,4D,4 | 
[V:1] g4g4 | 
[V:2] e4e4 | 
[V:3] c4c4 | 
[V:4] C,4C,4 | 
[V:5] G,2E,2G,2C,2 | 
[V:1] f8 | 
[V:2] d8 | 
[V:3] A8 | 
[V:4] D,8 | 
[V:5] F,3E,D,C,D,2 | 
[V:1] B6c2 | 
[V:2] d4g4 | 
[V:3] z4d4- | 
[V:4] G,6A,2 | 
[V:5] G,,8 | 
[V:1] d4B3c | 
[V:2] f4g4 | 
[V:3] d4d4 | 
[V:4] B,4G,4 | 
[V:5] z8 | 
[V:1] d4B4 | 
[V:2] z2f4ef | 
[V:3] d4d4 | 
[V:4] B,8- | 
[V:5] z8 | 
[V:1] G2B2A4 | 
[V:2] g2f6 | 
[V:3] d4c4 | 
[V:4] B,4F,4 | 
[V:5] z8 | 
[V:1] B4G4 | 
[V:2] d6e2 | 
[V:3] B6AG | 
[V:4] G,6A,B, | 
[V:5] z8 | 
[V:1] A8 | 
[V:2] f8 | 
[V:3] F8 | 
[V:4] C8 | 
[V:5] z8 | 
[V:1] [M:3/1]d6cBA4 | 
[V:2] [M:3/1]z12 | 
[V:3] [M:3/1]B4B4c4 | 
[V:4] [M:3/1]z12 | 
[V:5] [M:3/1]G,,4G,4F,4 | 
[V:1] B4G4F4 | 
[V:2] z12 | 
[V:3] d6cBA4 | 
[V:4] B,4B,4C4 | 
[V:5] B,,2B,4G,2A,2F,2 | 
[V:1] z2f4e2f4 | 
[V:2] B4B4c4 | 
[V:3] B4G4F4 | 
[V:4] D6CB,A,4 | 
[V:5] B,,2B,4G,2A,2F,2 | 
[V:1] z2f4e2f4 | 
[V:2] d6cBA4 | 
[V:3] B4B4c4 | 
[V:4] B,4G,4F,4 | 
[V:5] B,,2B,4G,2A,2F,2 | 
[V:1] z2f4e2f4 | 
[V:2] B4G4F4 | 
[V:3] d6cBA4 | 
[V:4] B,4B,4C4 | 
[V:5] B,,2B,4G,2A,2F,2 | 
[V:1] z2f4e2f4 | 
[V:2] B4B4c4 | 
[V:3] B4G4F4 | 
[V:4] D6CB,A,4 | 
[V:5] B,,2B,4G,2A,4 | 
[V:1] g4G4d4- | 
[V:2] d6e2f4 | 
[V:3] B4d6c2 | 
[V:4] G,4B,6A,2 | 
[V:5] G,8D,4 | 
[V:1] d12 | 
[V:2] g8f4 | 
[V:3] B4A8 | 
[V:4] G,4D,8 | 
[V:5] G,,4D,8 | 
[V:1] B4A3GF2E2 | 
[V:2] g4a6g2 | 
[V:3] B4c4d4- | 
[V:4] G,4F,4D,4 | 
[V:5] z12 | 
[V:1] D4d6c2 | 
[V:2] f2e2d4d4- | 
[V:3] d2c2B2A2G4 | 
[V:4] D6C2B,2A,2 | 
[V:5] D,4G,,8- | 
[V:1] B2A2G4d4- | 
[V:2] d2c2B2A2G4 | 
[V:3] d6c2B2A2 | 
[V:4] G,4D6C2 | 
[V:5] G,,12 | 
[V:1] d2c2B6A2 | 
[V:2] z4g4f4 | 
[V:3] G4G4A4 | 
[V:4] B,2A,2G,4D,4 | 
[V:5] G,6G,,2D,4 | 
[V:1] G2B2A2F2A2B2 | 
[V:2] g4a6g2 | 
[V:3] B4c6B2 | 
[V:4] G,4F,6G,2 | 
[V:5] G,,4z4z4 | 
[V:1] c4d8- | 
[V:2] g8^f4 | 
[V:3] G4A8 | 
[V:4] _E,4D,8 | 
[V:5] z12 | 
[V:1] d12 |]  
[V:2] g12 |]  
[V:3] G12 |]  
[V:4] G,12 |]  
[V:5] G,,12 |]  



